X:1
T:Also hat Gott die Welt geliebt
T:Melchior Franck
T:Text: Joh. 3,16
T:Also hat Gott die Welt geliebt
T:CPDL - Creative Commons Attribution Non Commercial 3.0
T:CPDL - Creative Commons Attribution Non Commercial 3.0
T:CPDL - Creative Commons Attribution Non Commercial 3.0
T:CPDL - Creative Commons Attribution Non Commercial 3.0
C:
C:Melchior Franck
Z:Joh. 3,16
Z:CPDL - Creative Commons Attribution Non Commercial 3.0
%%score [ 1 2 3 4 ]
L:1/8
M:4/2
K:F
V:1 treble nm="Sopran"
V:2 treble nm="Alt"
V:3 treble-8 nm="Tenor"
V:4 bass nm="Bass"
V:1
 G8 A8 | z4 c4 =B8 | z4 G4 A4 A4 | B12 A4- | A4 G8 ^F4 | G4 D4 G8 | z4 G4 c8- | c4 A4 B4 B4 | %8
w: Al- so,|al- so,|al- so hat|Gott die|_ Welt ge-|liebt, al- so,|al- so,|_ al- so hat|
 B12 A4 | G12 G4 | G8 | z4 A8 A4 | A4 c4 B6 B2 | B8 A8 | A4 ^F6 F2 F2 F2 | G6 G2 _E8 | %16
w: Gott die|Welt ge-|liebt,|dass er|sei- nen ei- ni-|gen Sohn|gab, dass er sei- nen|ei- ni- gen|
 D8 D4 G2 G2 | G6 G2 G8 | F8 F8 | z4 B6 A2 G4 A4 | A6 c2 =B4 c4 | c6 _B2 A4 G4 | B8 A4 | G8 A8 | %24
w: Sohn gab, sei- nen|ei- ni- gen|Sohn gab,|auf dass al- le,|auf dass al- le,|auf dass al- le,|auf dass|al- le,|
 z4 c4 =B4 c4 | d8 c8 | z4 G4 ^F4 G4 | A8 =B4 | c6 A2 _B2 A2 | G8 G4 | G6 A2 F4 | E2 F4 E2 F8 || %32
w: die an ihn|glau- ben,|die an ihn|glau- ben,|nicht ver- lo- ren|wer- den,|nicht ver- lo-|ren wer- * den,|
[M:3/2] A6 A2 G4 | F6 F2 E4 | D4 G4 ^F4 | G8 z4 | _B6 B2 A4 | G6 G2 G4 | F4 F4 F4 | F8 z4 | %40
w: son- dern das|e- wi- ge|Le- ben ha-|ben,|son- dern das|e- wi- ge|Le- ben ha-|ben,|
 B6 B2 A4 | G6 G2 ^F4 | G4 G4 G4 | G8 z4 | c6 c2 B4 | A6 A2 G4 | A4 G4 G4 | G8 =B4 | c6 c2 c4 | %49
w: son- dern das|e- wi- ge|Le- ben ha-|ben.|son- dern das|e- wi- ge|Le- ben ha-|ben, das|e- wi- ge|
 A8 G4 | G12 | G16 |] %52
w: Le- ben|ha-|ben.|
V:2
 E8 F8 | z4 G4 G8 | z4 E4 F4 F4 | F12 E4 | F2 E2 D2 C2 D4 D4 | D8 z4 D4 | E8 z4 E4 | F12 F4 | %8
w: Al- so,|al- so,|al- so hat|Gott die|Welt _ _ _ _ ge-|liebt, al-|so, al-|so hat|
 G12 F2 =E2 | D4 E4 D6 D2 | E8 | z4 F8 F4 | F4 F4 F6 F2 | G8 E8 | ^F4 D6 D2 D2 D2 | B,6 B,2 C8 | %16
w: Gott _ _|_ die Welt ge-|liebt,|dass er|sei- nen ei- ni-|gen Sohn|gab, dass er sei- nen|ei- ni- gen|
 A,8 =B,4 D2 D2 | D8 _E4 D4 | C8 D8 | z4 F6 F2 E4 F4 | F6 E2 D4 E4 | E6 D2 D4 D4 | D4 E4 (F4 | %23
w: Sohn gab, sei- nen|ei- ni- gen|Sohn gab,|auf dass al- le,|auf dass al- le,|auf dass al- le,|auf dass al-|
 F2) ED E4 F4 F4 | G4 F2 E2 D4 E4 | G8 E4 E4 | D4 E4 D8- | D8 D4 | F6 F2 (F4 | F2) E2 D4 E4 | %30
w: * * * * le, die|an _ _ _ ihn|glau- ben, die|an ihn glau-|* ben,|nicht ver- lo-|* ren wer- den,|
 E6 F2 D2 =B,2 | C8 C8 ||[M:3/2] F6 F2 E4 | D6 D2 C4 | B,4 D4 D4 | D8 z4 | G6 G2 F4 | _E6 E2 E4 | %38
w: nicht ver- lo- ren|wer- den,|son- dern das|e- wi- ge|Le- ben ha-|ben,|||
 D4 D4 C4 | D8 z4 | F6 F2 F4 | D6 D2 D4 | B,4 _E4 D4 | =E8 z4 | G6 G2 G4 | E6 E2 G4 | F4 E4 D4 | %47
w: |||||||||
 E8 G4 | E6 E2 G4 | F8 E4 | D12 | E16 |] %52
w: |||||
V:3
 c8 c8 | z4 c4 d8 | z4 c4 c4 c4 | d12 c2 B2 | A4 B4 A4 A4 | =B8 z4 B4 | c8 z4 G4 | A4 c4 d4 d4 | %8
w: Al- so,|al- so,|al- so hat|Gott _ _|_ die Welt ge-|liebt, al-|so, al-|so. al- so hat|
 _e12 c4 | _B2 G2 c8 =B4 | c8 | z4 c8 c4 | c4 c4 d6 d2 | d4 d6 ^c=B c4 | d4 A6 A2 A2 A2 | %15
w: Gott die|Welt _ _ ge-|liebt,|dass er|sei- nen ei- ni-|gen Sohn _ _ _|gab, dass er sei- nen|
 G6 G2 A4 G4- | G2 ^FE F4 G4 _B2 B2 | B6 B2 c4 B4- | B2 AG A4 B8 | z4 d6 c2 c4 c4 | %20
w: ei- ni- gen Sohn|_ _ _ _ gab, sei- nen|ei- ni- gen Sohn|_ _ _ _ gab,|auf dass al- le,|
 c3 B A2 G2 G4 G4 | G6 G2 ^F4 G4 | G8 c4 | c8 c4 c4 | c4 A4 d4 c4- | c4 =B4 c4 G4- | G4 c4 A4 G4- | %27
w: auf _ _ dass al- le,|auf dass al- le,|auf dass|al- le, die|an ihn glau- *|* * ben, an|_ ihn _ glau-|
 G4 ^F4 G4 | A6 c2 d2 c2 | =B2 c4 B2 c4 | c6 c2 _B2 F2 | G2 A2 G4 A8 ||[M:3/2] c6 c2 c4 | %33
w: * * ben|nicht ver- lo- ren|wer- * * den,|nicht ver- lo- ren|wer- * * den,|son- dern das|
 A6 A2 A4 | F4 B4 A4 | =B8 z4 | d6 d2 d4 | _B6 B2 c4 | A4 B4 A4 | B8 z4 | d6 d2 c4 | B6 B2 A4 | %42
w: e- wi- ge|Le- ben ha-|ben,|son- dern das|e- wi- ge|Le- ben ha-|ben,|son- dern das|e- wi- ge|
 G4 c4 =B4 | c8 z4 | e6 e2 d4 | c6 c2 c4 | c4 c4 =B4 | c8 d4 | c6 c2 G4 | c8 c4 | =B12 | c16 |] %52
w: Le- ben ha-|ben,|son- dern das|e- wi- ge|Le- ben ha-|ben, das|e- wi- ge|Le- ben|ha-|ben.|
V:4
 C,8 F,8 | z4 E,4 G,8 | z4 C,4 F,4 F,4 | B,,12 C,4 | D,12 D,4 | G,,8 z4 G,,4 | C,8 z4 C,4 | %7
w: Al- so,|al- so,|al- so hat|Gott die|Welt ge-|liebt, al-|so, al-|
 F,4 F,4 B,4 B,4 | _E,12 F,4 | G,12 G,,4 | C,8 | z4 F,8 F,4 | F,4 A,4 B,6 B,2 | G,8 A,8 | %14
w: so, al- so hat|Gott die|Welt ge-|liebt,|dass er|sei- nen ei- ni-|gen Sohn|
 D,4 D,6 D,2 D,2 D,2 | _E,6 E,2 C,8 | D,8 G,,4 G,2 G,2 | G,6 G,2 _E,8 | F,8 B,,8 | %19
w: gab, dass er sei- nen|ei- ni- gen|Sohn gab, sei- nen|ei- ni- gen|Sohn gab,|
 z4 B,,6 F,2 C,4 F,4 | F,6 C,2 G,4 C,4 | C,6 G,,2 D,4 G,,4- | G,,4 (C,8 | C,8) F,,4 F,4 | %24
w: auf dass al- le,|auf dass al- le,|auf dass al- le,|_ al-|* le, die|
 E,4 F,4 G,8- | G,8 C,4 C,4 | =B,,4 C,4 D,8- | D,8 G,4 | F,6 F,2 B,,2 F,,2 | G,,8 C,4 | %30
w: an ihn glau-|* ben, die|an ihn glau-|* ben,|nicht ver- lo- ren|wer- den,|
 C,6 A,,2 B,,2 D,2 | C,8 F,8 ||[M:3/2] F,6 F,2 C,4 | D,6 D,2 A,,4 | B,,4 G,,4 D,4 | G,,8 z4 | %36
w: nicht ver- lo- ren|wer- den,|son- dern das|e- wi- ge|Le- ben ha-|ben,|
 G,6 G,2 D,4 | _E,6 E,2 C,4 | D,4 B,,4 F,4 | B,,8 z4 | B,6 B,2 F,4 | G,6 G,2 D,4 | _E,4 C,4 G,4 | %43
w: |||||||
 C,8 z4 | C6 C2 G,4 | A,6 A,2 E,4 | F,4 C,4 G,4 | C,8 G,4 | A,6 A,2 E,4 | F,8 C,4 | G,12 | C,16 |] %52
w: |||||||||

